X: 1
T: Ashleigh Roach's
M: 4/4
L: 1/8
R: reel
K: Dmaj
|:g|fdef g2ed|(3cBA eA fAeg|fdef g2de|dcdB cAAg|
fdef g2ed|(3cBA eA fAeg|fdaf gefd|1 dcde cAA:|2 dcde cA|]
|:cd|eA~A2 eAce|fdge fdcd|eA~A2 eAag|(3fga ge d2cd|
eA~A2 eAce|fdge fdcd|ecdB cAag|1 (3fga ge d2:|2 (3 fga ge d3|]
